X: 12117
T: Evening Aidan
R: reel
M: 4/4
K: Adorian
|:e2dc ~A3d|cAcd egag|e2dc ~A3G|1 A/B/c dc Acdg:|2 A/B/c dc A3z||
|:e2dc deg2-|ga (3edc dcde|gage dec'2|aged c2Ac:|

